alura/assets/api/cursos/blender-modelagem-low-poly.svg

<svg xmlns="http://www.w3.org/2000/svg" id="Layer_1" x="0" y="0" version="1.1" viewBox="0 0 50 50" xml:space="preserve"><style>.st2{fill:#464646}</style><path fill="#b292f3" d="M38.3 7L25.7 2.7 13 5.8l-8.6 9.8-.7 4.6 35-12.7z"/><path fill="#9674ea" d="M47.5 26.4l-2.3-8.9-1.6-3.7-4.9-6.3-35 12.7-1.2 9.1 3.9 8.3 5.1 4.3 35-12.8z"/><path d="M37.3 27l-5-17.5 13.3 7.9-8.3 9.6zm-4.2-16.4L37.5 26l7.3-8.4-11.7-7z" class="st2"/><path d="M33.3 10.3l-18.6-.8 11-7.1 7.6 7.9zm-17-1.2l15.8.7L25.6 3l-9.3 6.1z" class="st2"/><path d="M15.5 9.6l-2.9-3.9L27 2.1 15.5 9.6zM13.4 6l2.2 2.9 8.7-5.6L13.4 6z" class="st2"/><path d="M8.6 25.7L4 15.5l12-6.9-7.4 17.1zm-3.9-10l3.9 8.7L15 9.9 4.7 15.7z" class="st2"/><path d="M9.6 40.7L8.3 24.5l14.5 11.9-13.2 4.3zm-.7-15L10 40.1l11.7-3.8L8.9 25.7z" class="st2"/><path d="M36.6 42l-14.9-5.6 16-10.4-1.1 16zm-13.8-5.7l13.4 5 1-14.4-14.4 9.4z" class="st2"/><path d="M35.6 42.3l10.7-11.9-3.1 9.3h-.1l-7.5 2.6zm9.4-9.9l-7.8 8.7 5.5-2 2.3-6.7z" class="st2"/><path d="M31.3 47.6l-9.5-.9 15.5-5.6-6 6.5zm-7.2-1.2l7 .7 4.4-4.8-11.4 4.1z" class="st2"/><path d="M46.4 17.2l-1.6-3.9L39 5.9 25.7 1.4 12.3 4.7 3.2 15.1l-2 14.4 4.2 8.9 11.2 9.5 6.3-.1 8.7.8L44 40.2l4.8-13.7-2.4-9.3zM20.9 45.3l-7.7-3.6-1.8-1.5L22 36.7v.1l.6 8.5h-1.7zM8.2 25.1L3.9 28l1.3-9.8 3 6.7v.2zm-2.8-7.8l.2-1.2 1.7-1.9L15 9.9 8.6 24.5l-3.2-7.2zm10.2-7.5l6.8 10.3L9 24.7l6.6-14.9zM37.5 8l5 6.4.7 1.6-10-6 1.1-.6 2.8-1.5.4.1zm-4.6 1.7v-.1l-.1.1L28 4.8l8.4 2.9-3.5 2zM16 9.5l16.1.7-6.6 6.8-2.7 2.8L16 9.5zm6.5 11.1L22 35.8 9.1 25.2l13.4-4.6zm.5 0l6.2 2.6 7.7 3.3-14.4 9.4.5-15.3zm6.3 2.1l-6.1-2.6 2.8-2.8 6.6-6.7L37 26l-7.7-3.3zm3.8-12.1l10.4 6.2.5 1.1.1.4-6.6 7.6-4.4-15.3zM27 4.5l5.1 5.3L15.7 9l-.2-.3-1.4-1.9L25.6 4l1.4.5zM15.2 9.2l-6.9 4 5.4-6.1 1.5 2.1zM8.1 37.4l-1.4-2.2-2.9-6.1.1-.4 4.5-3.1 1 12.9-1.3-1.1zm.8-11.7l12.8 10.6-10.8 3.5-1-.8-1-13.3zm14.2 19.6l-.6-8.6 13.2 5-10.5 3.8-2.1-.2zm-.3-9l14.3-9.4-1 14.4-13.3-5zm14.8-9.4l6.9 4.1-.7 2-7.2 8 1-14.1zm7.1 3.6l-6.8-4.1h.1-.1l6.4-7.4.8 3.2.2 6.8-.6 1.5zM14.6 42.9l5.2 2.4h-2.3l-2.9-2.4zM30.9 46l-4.6-.4 9.8-3.5v.3l.4-.5.6-.2-.3-.1 6.6-7.4-1.5 4.4-11 7.4zm14.9-18.4l-.1-3.3.5 2.1-.4 1.2z" class="st2"/></svg>

<?xml version="1.0" encoding="utf-8"?>
<!-- Generator: Adobe Illustrator 22.0.1, SVG Export Plug-In . SVG Version: 6.00 Build 0)  -->
<svg version="1.1" id="Layer_1" xmlns="http://www.w3.org/2000/svg" xmlns:xlink="http://www.w3.org/1999/xlink" x="0px" y="0px"
	 viewBox="0 0 50 50" style="enable-background:new 0 0 50 50;" xml:space="preserve">
<style type="text/css">
	.st0{fill:#B292F3;}
	.st1{fill:#9674EA;}
	.st2{fill:#464646;}
</style>
<g>
	<polygon class="st0" points="38.3,7 25.7,2.7 13,5.8 4.4,15.6 3.7,20.2 38.7,7.5 	"/>
</g>
<g>
	<polygon class="st1" points="47.5,26.4 45.2,17.5 43.6,13.8 38.7,7.5 3.7,20.2 2.5,29.3 6.4,37.6 11.5,41.9 46.5,29.1 	"/>
</g>
<g>
	<path class="st2" d="M37.3,27l-5-17.5l13.3,7.9L37.3,27z M33.1,10.6l4.4,15.4l7.3-8.4L33.1,10.6z"/>
</g>
<g>
	<path class="st2" d="M33.3,10.3L14.7,9.5l11-7.1L33.3,10.3z M16.3,9.1l15.8,0.7L25.6,3L16.3,9.1z"/>
</g>
<g>
	<path class="st2" d="M15.5,9.6l-2.9-3.9L27,2.1L15.5,9.6z M13.4,6l2.2,2.9l8.7-5.6L13.4,6z"/>
</g>
<g>
	<path class="st2" d="M8.6,25.7L4,15.5l12-6.9L8.6,25.7z M4.7,15.7l3.9,8.7L15,9.9L4.7,15.7z"/>
</g>
<g>
	<path class="st2" d="M9.6,40.7L8.3,24.5l14.5,11.9L9.6,40.7z M8.9,25.7L10,40.1l11.7-3.8L8.9,25.7z"/>
</g>
<g>
	<path class="st2" d="M36.6,42l-14.9-5.6l16-10.4L36.6,42z M22.8,36.3l13.4,5l1-14.4L22.8,36.3z"/>
</g>
<g>
	<path class="st2" d="M35.6,42.3l10.7-11.9l-3.1,9.3l-0.1,0L35.6,42.3z M45,32.4l-7.8,8.7l5.5-2L45,32.4z"/>
</g>
<g>
	<path class="st2" d="M31.3,47.6l-9.5-0.9l15.5-5.6L31.3,47.6z M24.1,46.4l7,0.7l4.4-4.8L24.1,46.4z"/>
</g>
<path class="st2" d="M46.4,17.2l-1.6-3.9L39,5.9L25.7,1.4L12.3,4.7L3.2,15.1L1.2,29.5l4.2,8.9l11.2,9.5l6.3-0.1l8.7,0.8L44,40.2
	l4.8-13.7L46.4,17.2z M20.9,45.3l-7.7-3.6l-1.8-1.5L22,36.7l0,0.1l0,0l0.6,8.5L20.9,45.3z M8.2,25.1L3.9,28l1.3-9.8l3,6.7L8.2,25.1
	L8.2,25.1z M5.4,17.3l0.2-1.2l1.7-1.9L15,9.9L8.6,24.5L5.4,17.3z M15.6,9.8l6.8,10.3L9,24.7L15.6,9.8z M37.5,8l5,6.4l0.7,1.6l-10-6
	l1.1-0.6l2.8-1.5L37.5,8z M32.9,9.7l0-0.1l-0.1,0.1L28,4.8l8.4,2.9L32.9,9.7z M16,9.5l16.1,0.7L25.5,17l-2.7,2.8L16,9.5z M22.5,20.6
	L22,35.8L9.1,25.2L22.5,20.6z M23,20.6l6.2,2.6l7.7,3.3l-14.4,9.4L23,20.6z M29.3,22.7l-6.1-2.6l2.8-2.8l6.6-6.7L37,26L29.3,22.7z
	 M33.1,10.6l10.4,6.2l0.5,1.1l0.1,0.4l-6.6,7.6L33.1,10.6z M27,4.5l5.1,5.3L15.7,9l-0.2-0.3l0,0l-1.4-1.9L25.6,4L27,4.5z M15.2,9.2
	l-6.9,4l5.4-6.1L15.2,9.2z M8.1,37.4l-1.4-2.2l-2.9-6.1l0.1-0.4l4.5-3.1l1,12.9L8.1,37.4z M8.9,25.7l12.8,10.6l-10.8,3.5l-1-0.8
	L8.9,25.7z M23.1,45.3l-0.6-8.6l13.2,5l-10.5,3.8L23.1,45.3z M22.8,36.3l14.3-9.4l-1,14.4L22.8,36.3z M37.6,26.9l6.9,4.1l-0.7,2
	l-7.2,8L37.6,26.9z M44.7,30.5l-6.8-4.1l0.1,0l-0.1,0l6.4-7.4l0.8,3.2l0.2,6.8L44.7,30.5z M14.6,42.9l5.2,2.4l-2.3,0L14.6,42.9z
	 M30.9,46l-4.6-0.4l9.8-3.5l0,0.3l0.4-0.5l0.6-0.2l-0.3-0.1l6.6-7.4l-1.5,4.4L30.9,46z M45.8,27.6l-0.1-3.3l0.5,2.1L45.8,27.6z"/>
</svg>
